X: 205
T:Quick March. JaW.204
M:2/4
Q:50
S:James Winder Ms, Lancashire, 1835-41
R:March
O:England
A:Wyresdale,Lancashire
H:1/8
Z:vmp.Chris Partington, Aug 2004
K:D
(f/g/)|af ge|(d/c/d/e/) d (e/f/)|ge fd|e3f/g/|!
af ge|(e/c/d/e/)|dc'|a>b a/g/f/e/|ddd:|!
|:f|e>fge|.f.a.d.f|e>fge|.f.azf|!
e>fge|.f.a .d.f|ee ef/^g/|a>b (a/g/f/g/|!
af ge|(d/c/d/e/) d e/f/|ge fd|e3f/g/|!
af ge|(d/c/d/e/) db|a/g/f/e/|ddd:|]
